X:177
T:McKeown's
R:polka
M:2/4
L:1/8
M:4/4
K:Dmaj
|: AFBF AFBF | ABcd dc G2 | GEBE GEBE | GABc BAFG |
AFBF AFBF | ABcd eB B2 | edcB BA A2 | ^GABc d2 d2 :|
|: bafd dc c2 | BBBc BA A2 | ^GABc dcdf | ba^gb a2 dd |
dced cB B2 | ^GABc BA F2 | EFGA Bced | (3cBA (3GFE D4 :|
|: f2 (3efe dd d2 | dded dc c2 | g2 (3fgf ee e2 | eefd dcBA |
f2 (3efe dd d2 | dded cB B2 | B2 Bd e2 ef | edcB A4 :|
|: FAFE DFBF | AGGF G3 A | B2 BB BBcB | BAA^G A2 Bc |
d2 dd edAB | cBBA B3 B | cccB AABc | eddc d4 :|

